X:1
T:The Bright and Morning Star
T:The Bright and Morning Star
T:William Augustine Ogden
T:Lily W. Grafton, 1872
T:Public Domain Courtesy of the Cyber Hymnal™
T:Public Domain Courtesy of the Cyber Hymnal™
C:William Augustine Ogden
Z:Public Domain
Z:Courtesy of the Cyber Hymnal™
%%score ( 1 2 ) ( 3 4 )
L:1/8
Q:1/4=108
M:6/8
K:Bb
V:1 treble 
V:2 treble 
V:3 bass 
V:4 bass 
V:1
 [DF] | [DF]2 [B,D] [CE]2 [EG] | [DF]3 [DB]2 [DB] | [Fd]2 [Ec] [DB]2 [EG] | [DF]3- [DF]2 [DF] | %5
w: 1.~A|pil- grim and a|stran- ger, I|jour- ney on my|way; * I|
w: 2.~Tho’|oft my feet are|wea- ry, So|long and rough the|road, * One|
w: 3.~My|bea- con ne- ver|fails me, Tho’|long and drear the|night, * Tho’|
w: 4.~It|guides me to the|ci- ty, With|twelve foun- da- tions|fair, * Whose|
 [DF]2 [B,D] [CE]2 [EG] | [DF]3 [FB]2 [FB] | [FA]2 [FB] [FA]2 [=EG] | F3- F2 F | %9
w: seek thro’ tri- bu-|la- tion The|light of per- fect|day. * Thro’|
w: stands be- side me,|pa- tient, And|shares my hea- vy|load. * My|
w: clouds a- round me|dark- en, They|can not hide its|light. * Cour-|
w: wall is pur- est|jas- per, And|set with jew- els|rare. * A|
 F2 [FG] [FA]2 [FB] | [Fc]3 [FA]2 [FA] | [FB]2 [Fc] [Fd]2 [=Ec] | [Fc]3- [Fc]2 [Fc] | %13
w: thick- est gloom and|dark- ness, I|see a gleam a-|far; * It|
w: faith can ne- ver|fail me, The|while I see a-|far, * In|
w: age, the day is|dawn- ing, For|lo! I see a-|far, * In|
w: grand un- tem- pled|ci- ty, Re-|vealed to John of|old, * Whose|
 [Fd]2 [Ec] [DB]2 [DF] | [EG]3 !fermata![EB]2 [EG] | [DF]2 [DB] [DB]2 [Ec] | [DB]3- [DB]2 || %17
w: beck- ons ev- er|up- ward, The|bright and morn- ing|star. *|
w: all its ra- diant|beau- ty, The|bright and morn- ing|star. *|
w: all its ra- diant|beau- ty, The|bright and morn- ing|star. *|
w: gates of pearl are|num- bered, And|streets are paved with|gold. *|
"^Refrain" [DF] | F3 G3 | [DF]3- [DF]2 [DF] | d3 B3 | [Fc]3- [Fc]2 [Fc] | [Fd]2 [Fc] [DB]2 [DF] | %23
w: ||||||
w: That|bright, bright,|star, * By|faith I|see; * Be-|hold Him high in|
w: ||||||
w: ||||||
 [EG]3 !fermata![EB]2 [EG] | [DF]2 [DB] [DB]2 [Ec] | [DB]3- [DB]2 |] %26
w: |||
w: glo- ry, To|in- ter- cede for|me. *|
w: |||
w: |||
V:2
 x | x6 | x6 | x6 | x6 | x6 | x6 | x6 | F3- F2 F | F2 x4 | x6 | x6 | x6 | x6 | x6 | x6 | x5 || x | %18
 (D2 D) (E2 E) | x6 | (F2 F) (F2 F) | x6 | x6 | x6 | x6 | x5 |] %26
V:3
 [B,,B,] | [B,,B,]2 [B,,B,] [B,,B,]2 [B,,B,] | [B,,B,]3 [B,,F,]2 [B,,B,] | %3
w: ~|~ ~ ~ ~|~ ~ ~|
 [B,,B,]2 [B,,B,] [B,,B,]2 [B,,B,] | [B,,B,]3- [B,,B,]2 [B,,B,] | %5
w: ~ ~ ~ ~|~ * ~|
 [B,,B,]2 [B,,B,] [B,,B,]2 [B,,B,] | [B,,B,]3 [B,,D]2 [B,,D] | [C,C]2 [C,D] [C,C]2 [C,B,] | %8
w: ~ ~ ~ ~|~ ~ ~|~ ~ ~ ~|
 [F,A,]3- [F,A,]2 [F,A,] | [F,A,]2 [F,B,] [F,C]2 [F,D] | [F,E]3 [F,C]2 [E,C] | %11
w: ~ * ~|~ ~ ~ ~|~ ~ ~|
 [D,B,]2 [F,A,] B,2 [G,B,] | [F,A,]3- [F,A,]2 [F,A,] | [B,,B,]2 [B,,B,] [B,,B,]2 [B,,B,] | %14
w: ~ ~ ~ ~|~ * ~|~ ~ ~ ~|
 [E,B,]3 !fermata![E,G,]2 [E,B,] | [F,B,]2 F, F,2 [F,A,] | [B,,F,B,]3- [B,,F,B,]2 || [B,,B,] | %18
w: ~ ~ ~|~ ~ ~ ~|~ *|That|
 [B,,B,]2 [B,,B,] [E,B,]2 [E,B,] | [B,,B,]3- [B,,B,]2 [B,,B,] | B,2 B, [B,,D]2 [D,B,] | %21
w: bright and morn- ing|star, * By|faith, by faith I|
 [F,A,]3- [F,A,]2 [F,A,] | [B,,B,]2 [B,,B,] [B,,B,]2 [B,,B,] | [E,B,]3 !fermata![E,G,]2 [E,B,] | %24
w: |||
 [F,B,]2 F, F,2 [F,A,] | [B,,F,B,]3- [B,,F,B,]2 |] %26
w: ||
V:4
 x | x6 | x6 | x6 | x6 | x6 | x6 | x6 | x6 | x6 | x6 | x3 B,2 x | x6 | x6 | x6 | x2 F, F,2 x | %16
 x5 || x | x6 | x6 | B,2 B, x3 | x6 | x6 | x6 | x2 F, F,2 x | x5 |] %26

